docs/images/info/22.svg

<svg width="72" height="82" viewBox="0 0 72 82" fill="none" xmlns="http://www.w3.org/2000/svg">
<path d="M0 7.99587C0 60.8879 35.9051 81.3431 35.9051 81.3431C35.9051 81.3431 71.8101 60.8879 71.8101 7.99587C48.6354 -2.66529 23.1747 -2.66529 0 7.99587ZM41.2849 40.4326V54.2074H30.5252V40.4326H16.7504V29.6729H30.5252V15.8981H41.2849V29.6729H55.0597V40.4326H41.2849Z" fill="#2B3B46"/>
</svg>

<svg xmlns="http://www.w3.org/2000/svg" width="72" height="82" fill="none"><path fill="#2B3B46" d="M0 7.996c0 52.892 35.905 73.347 35.905 73.347S71.81 60.888 71.81 7.996C48.635-2.665 23.175-2.665 0 7.996m41.285 32.437v13.774h-10.76V40.433H16.75v-10.76h13.775V15.898h10.76v13.775H55.06v10.76z"/></svg>
